X: 5784
T: Caisleán An Óir
R: hornpipe
M: 4/4
K: Gdorian
GF|:"Gm" DGGF G2 (3ABc|"Gm"d3 e "F"f2ga|"Gm" gfdc "F"AdcA|"Gm"DGGE "F" FEDC|
"Gm" DGGF G2 (3ABc|"Gm"dcde "F" f2ga|"Gm" gfdc "F" AdcA|1 "Gm"DGGF G2 GF:|2 "Gm"DGGF G2 (3ABc||
|:"Gm"dgga _b2 ag|"F" fdde f2 ga|"Gm" gfdc "F" AdcA|"Gm"DG (3GGG "F" DF (3FFF|
"Gm" DGGF G2 (3ABc|"Gm" dcde "F" f2ga|"Gm"gfdc "F" AdcA|1 "Gm"DGGF G2 (3ABc:|2 "G" DGGF G4||

